X:0396
T:Unanimity
M:2/4
L:1/16
Q:1/4=120
I: :: ::
Z:Jack Campin * www.campin.me.uk * 2009
K:G
g2d2 g2dc|cBAG    d4  |GABc d2d2   | edcB     A2G2|\
g2d2 g2dc|cBAG    d2gf|e2ag gfed   |(fe)(d^c) d4 :|
d2cd e2d2|c2B2    c2A2|c2Bc d2c2   | B2A2     B2G2|\
g2ga g3 D|GABc {B}A4  |d2d2 d2(3edc| B2A2     G4 :|

